;PYCAM-META-DATA: Filename: /home/tony/chickiboom/BraceOnly140mm.stl
;PYCAM-META-DATA: Timestamp: 2014-04-28 19:35:15.203078
;PYCAM-META-DATA: Version: 0.5.1
;Estimated machine time: 22 minutes
G40 (disable tool radius compensation)
G49 (disable tool length compensation)
G80 (cancel modal motion)
G54 (select coordinate system 1)
G90 (disable incremental moves)
G21 (metric)
G61 (exact path mode)
F800.00000
S1000.00000
;PYCAM_TOOLPATH_SETTINGS: START
;[Bounds]
;maxz = 26.7999992371
;maxx = 897.955009766
;maxy = 134.445
;minx = 5.555
;miny = 5.555
;minz = 0.0
;
;[Tool]
;torus_radius = 0.25
;speed = 1000.0
;shape = CylindricalCutter
;tool_radius = 5.555
;feedrate = 800.0
;
;[Process]
;engrave_offset = 0.0
;step_down = 3.0
;generator = PushCutter
;postprocessor = SimpleCutter
;milling_style = ignore
;material_allowance = 0.5
;pocketing_type = none
;path_direction = xy
;
;PYCAM_TOOLPATH_SETTINGS: END
T1 M6
G0 Z30.0000
M3 (start spindle)
G04 P3 (wait for 3 seconds)
 X5.5550 Y5.5550
G1 Z26.8000
 X76.9450
G0 Z30.0000
 X120.1675
G1 Z26.8000
 X123.0575
 Y16.2958
 X120.1675
G0 Z30.0000
 X76.9450
G1 Z26.8000
 X5.5550
 Y27.0367
 X76.9450
G0 Z30.0000
 X120.1675
G1 Z26.8000
 X123.0575
 Y37.7775
 X120.1675
G0 Z30.0000
 X76.9450
G1 Z26.8000
 X5.5550
 Y48.5183
 X76.9450
G0 Z30.0000
 X120.1675
G1 Z26.8000
 X123.0575
 Y59.2592
 X120.1675
G0 Z30.0000
 X76.9450
G1 Z26.8000
 X5.5550
 Y70.0000
 X76.9450
G0 Z30.0000
 X120.1675
G1 Z26.8000
 X123.0575
 Y80.7408
 X120.1675
G0 Z30.0000
 X76.9450
G1 Z26.8000
 X5.5550
 Y91.4817
 X76.9450
G0 Z30.0000
 X120.1675
G1 Z26.8000
 X123.0575
 Y102.2225
 X120.1675
G0 Z30.0000
 X76.9450
G1 Z26.8000
 X5.5550
 Y112.9633
 X76.9450
G0 Z30.0000
 X120.1675
G1 Z26.8000
 X123.0575
 Y123.7042
 X120.1675
G0 Z30.0000
 X76.9450
G1 Z26.8000
 X5.5550
 Y134.4450
 X76.9450
G0 Z30.0000
 X120.1675
G1 Z26.8000
 X123.0575
G0 Z30.0000
 X71.6587 Y5.5550
G1 Z26.8000
 Y134.4450
 X60.6414
 Y5.5550
 X49.6241
 Y134.4450
 X38.6069
 Y5.5550
 X27.5896
 Y134.4450
 X16.5723
 Y5.5550
 X5.5550
 Y134.4450
 Z23.8222
 X73.9672
G0 Z30.0000
 X120.1675
G1 Z23.8222
 X123.0575
 Y123.7042
 X120.1675
G0 Z30.0000
 X73.9672
G1 Z23.8222
 X5.5550
 Y112.9633
 X73.9672
G0 Z30.0000
 X120.1675
G1 Z23.8222
 X123.0575
 Y102.2225
 X120.1675
G0 Z30.0000
 X73.9672
G1 Z23.8222
 X5.5550
 Y91.4817
 X73.9672
G0 Z30.0000
 X120.1675
G1 Z23.8222
 X123.0575
 Y80.7408
 X120.1675
G0 Z30.0000
 X73.9672
G1 Z23.8222
 X5.5550
 Y70.0000
 X73.9672
G0 Z30.0000
 X120.1675
G1 Z23.8222
 X123.0575
 Y59.2592
 X120.1675
G0 Z30.0000
 X73.9672
G1 Z23.8222
 X5.5550
 Y48.5183
 X73.9672
G0 Z30.0000
 X120.1675
G1 Z23.8222
 X123.0575
 Y37.7775
 X120.1675
G0 Z30.0000
 X73.9672
G1 Z23.8222
 X5.5550
 Y27.0367
 X73.9672
G0 Z30.0000
 X120.1675
G1 Z23.8222
 X123.0575
 Y16.2958
 X120.1675
G0 Z30.0000
 X73.9672
G1 Z23.8222
 X5.5550
 Y5.5550
 X73.9672
G0 Z30.0000
 X120.1675
G1 Z23.8222
 X123.0575
G0 Z30.0000
 X71.6587 Y134.4450
G1 Z23.8222
 Y5.5550
 X60.6414
 Y134.4450
 X49.6241
 Y5.5550
 X38.6069
 Y134.4450
 X27.5896
 Y5.5550
 X16.5723
 Y134.4450
 X5.5550
 Y5.5550
 Z20.8444
 X70.9894
G0 Z30.0000
 X120.1675
G1 Z20.8444
 X123.0575
 Y16.2958
 X120.1675
G0 Z30.0000
 X70.9894
G1 Z20.8444
 X5.5550
 Y27.0367
 X70.9894
G0 Z30.0000
 X120.1675
G1 Z20.8444
 X123.0575
 Y37.7775
 X120.1675
G0 Z30.0000
 X70.9894
G1 Z20.8444
 X5.5550
 Y48.5183
 X70.9894
G0 Z30.0000
 X120.1675
G1 Z20.8444
 X123.0575
 Y59.2592
 X120.1675
G0 Z30.0000
 X70.9894
G1 Z20.8444
 X5.5550
 Y70.0000
 X70.9894
G0 Z30.0000
 X120.1675
G1 Z20.8444
 X123.0575
 Y80.7408
 X120.1675
G0 Z30.0000
 X70.9894
G1 Z20.8444
 X5.5550
 Y91.4817
 X70.9894
G0 Z30.0000
 X120.1675
G1 Z20.8444
 X123.0575
 Y102.2225
 X120.1675
G0 Z30.0000
 X70.9894
G1 Z20.8444
 X5.5550
 Y112.9633
 X70.9894
G0 Z30.0000
 X120.1675
G1 Z20.8444
 X123.0575
 Y123.7042
 X120.1675
G0 Z30.0000
 X70.9894
G1 Z20.8444
 X5.5550
 Y134.4450
 X70.9894
G0 Z30.0000
 X120.1675
G1 Z20.8444
 X123.0575
G0 Z30.0000
 X60.6414
G1 Z20.8444
 Y5.5550
 X49.6241
 Y134.4450
 X38.6069
 Y5.5550
 X27.5896
 Y134.4450
 X16.5723
 Y5.5550
 X5.5550
 Y134.4450
G0 Z30.0000
 X120.1675
G1 Z17.8667
 X123.0575
 Y123.7042
 X120.1675
 Y112.9633
 X123.0575
 Y102.2225
 X120.1675
 Y91.4817
 X123.0575
 Y80.7408
 X120.1675
 Y70.0000
 X123.0575
 Y59.2592
 X120.1675
 Y48.5183
 X123.0575
 Y37.7775
 X120.1675
 Y27.0367
 X123.0575
 Y16.2958
 X120.1675
 Y5.5550
 X123.0575
G0 Z30.0000
 X120.1675
G1 Z14.8889
 X123.0575
 Y16.2958
 X120.1675
 Y27.0367
 X123.0575
 Y37.7775
 X120.1675
 Y48.5183
 X123.0575
 Y59.2592
 X120.1675
 Y70.0000
 X123.0575
 Y80.7408
 X120.1675
 Y91.4817
 X123.0575
 Y102.2225
 X120.1675
 Y112.9633
 X123.0575
 Y123.7042
 X120.1675
 Y134.4450
 X123.0575
G0 Z30.0000
M5 (stop spindle)
G04 P3 (wait for 3 seconds)
F800.00000
S1000.00000
;PYCAM_TOOLPATH_SETTINGS: START
;[Bounds]
;maxz = 26.7999992371
;maxx = 897.955009766
;maxy = 134.445
;minx = 5.555
;miny = 5.555
;minz = 0.0
;
;[Tool]
;torus_radius = 0.25
;speed = 1000.0
;shape = CylindricalCutter
;tool_radius = 5.555
;feedrate = 800.0
;
;[Process]
;engrave_offset = 0.0
;step_down = 1.5
;generator = ContourFollow
;postprocessor = SimpleCutter
;milling_style = conventional
;material_allowance = 0.0
;pocketing_type = none
;path_direction = x
;
;PYCAM_TOOLPATH_SETTINGS: END
G0 Z30.0000
M3 (start spindle)
G04 P3 (wait for 3 seconds)
 X123.5574 Y134.4450
G1 Z26.8000
 Y5.5550
 X119.6676
 Y134.4450
G0 Z30.0000
 X98.5574
G1 Z26.8000
 Y5.5550
 X98.5550
 Y134.4450
G0 Z30.0000
 X77.4449
G1 Z26.8000
 Y5.5550
G0 Z30.0000
 X123.5574 Y15.5556
G1 Z25.3111
 Y5.5550
G0 Z30.0000
 Y134.4450
G1 Z25.3111
 Y5.5550
 X119.6676
 Y134.4450
G0 Z30.0000
 Y5.5550
G1 Z25.3111
 Y15.5556
G0 Z30.0000
 X98.5574 Y134.4450
G1 Z25.3111
 Y5.5550
 X98.5550
 Y134.4450
G0 Z30.0000
 X98.5574 Y29.7759
G1 Z25.3111
 Y5.5550
G0 Z30.0000
 X123.5574 Y31.1111
G1 Z23.8222
 Y5.5550
G0 Z30.0000
 Y134.4450
G1 Z23.8222
 Y5.5550
 X119.6676
 Y134.4450
G0 Z30.0000
 Y5.5550
G1 Z23.8222
 Y31.1111
G0 Z30.0000
 X98.5574 Y134.4450
G1 Z23.8222
 Y5.5550
 X98.5550
 Y134.4450
G0 Z30.0000
 Y80.4482
G1 Z23.8222
 Y134.4450
G0 Z30.0000
 X123.5574 Y46.6667
G1 Z22.3333
 Y5.5550
G0 Z30.0000
 Y134.4450
G1 Z22.3333
 Y5.5550
 X119.6676
 Y134.4450
G0 Z30.0000
 Y5.5550
G1 Z22.3333
 Y46.6667
G0 Z30.0000
 X98.5574 Y134.4450
G1 Z22.3333
 Y5.5550
 X98.5550
 Y134.4450
G0 Z30.0000
 Y50.6723
G1 Z22.3333
 Y134.4450
G0 Z30.0000
 X123.5574 Y62.2222
G1 Z20.8444
 Y5.5550
G0 Z30.0000
 Y134.4450
G1 Z20.8444
 Y5.5550
 X119.6676
 Y134.4450
G0 Z30.0000
 X98.5550 Y5.5550
G1 Z20.8444
 Y134.4450
 X98.5574
 Y5.5550
G0 Z30.0000
 X123.5574 Y77.7778
G1 Z19.3556
 Y5.5550
G0 Z30.0000
 Y134.4450
G1 Z19.3556
 Y5.5550
 X119.6676
 Y134.4450
G0 Z30.0000
 Y5.5550
G1 Z19.3556
 Y77.7778
G0 Z30.0000
 X123.5574 Y93.3333
G1 Z17.8667
 Y5.5550
G0 Z30.0000
 Y134.4450
G1 Z17.8667
 Y5.5550
 X119.6676
 Y134.4450
G0 Z30.0000
 Y5.5550
G1 Z17.8667
 Y93.3333
G0 Z30.0000
 X123.5574 Y108.8889
G1 Z16.3778
 Y5.5550
G0 Z30.0000
 Y134.4450
G1 Z16.3778
 Y5.5550
 X119.6676
 Y108.8889
G0 Z30.0000
 Y5.5550
G1 Z16.3778
 Y134.4450
G0 Z30.0000
 X123.5574 Y124.4444
G1 Z14.8889
 Y5.5550
G0 Z30.0000
 Y134.4450
G1 Z14.8889
 Y5.5550
 X119.6676
 Y134.4450
G0 Z30.0000
 Y5.5550
G1 Z14.8889
 Y124.4444
G0 Z30.0000
M5 (stop spindle)
G04 P3 (wait for 3 seconds)
G0 Z30.0000
M2 (end program)
