;PYCAM-META-DATA: Filename: /home/tony/Documents/chickiboom/CBGneck-pad-40mmwide.stl
;PYCAM-META-DATA: Timestamp: 2014-03-17 17:21:50.156463
;PYCAM-META-DATA: Version: 0.5.1
;Estimated machine time: 38 minutes
G40 (disable tool radius compensation)
G49 (disable tool length compensation)
G80 (cancel modal motion)
G54 (select coordinate system 1)
G90 (disable incremental moves)
G21 (metric)
G61 (exact path mode)
F1000.00000
S1000.00000
;PYCAM_TOOLPATH_SETTINGS: START
;[Bounds]
;maxz = 26.7999992371
;maxx = 912.100024414
;maxy = 37.7
;minx = 2.3
;miny = 2.3
;minz = 0.0
;
;[Tool]
;torus_radius = 0.25
;speed = 1000.0
;shape = CylindricalCutter
;tool_radius = 2.3
;feedrate = 1000.0
;
;[Process]
;engrave_offset = 0.0
;step_down = 3.0
;generator = PushCutter
;postprocessor = SimpleCutter
;milling_style = ignore
;material_allowance = 0.5
;pocketing_type = none
;path_direction = y
;
;PYCAM_TOOLPATH_SETTINGS: END
T1 M6
G0 Z50.0000
M3 (start spindle)
G04 P3 (wait for 3 seconds)
 X2.3000 Y2.3000
G1 Z26.8000
 Y37.7000
 X6.8949
 Y2.3000
 X11.4899
 Y37.7000
 X16.0848
 Y2.3000
 X20.6798
 Y37.7000
 X25.2747
 Y2.3000
 X29.8697
 Y37.7000
 X34.4646
 Y2.3000
 X39.0596
 Y37.7000
 X43.6545
 Y2.3000
 X48.2495
 Y37.7000
 X52.8444
 Y2.3000
 X57.4394
 Y37.7000
 X62.0343
 Y2.3000
G0 Z50.0000
 X80.4141 Y37.7000
G1 Z26.8000
 Y2.3000
G0 Z50.0000
 X103.3889
G1 Z26.8000
 Y37.7000
 X107.9838
 Y2.3000
 X112.5788
 Y37.7000
 X117.1737
 Y2.3000
 X121.7687
 Y37.7000
 X126.3636
 Y2.3000
 X130.9586
 Y37.7000
 X135.5535
 Y2.3000
 X140.1485
 Y37.7000
 X144.7434
 Y2.3000
 X149.3384
 Y37.7000
 X153.9333
 Y2.3000
 X158.5283
 Y37.7000
 X163.1232
 Y2.3000
 X167.7182
 Y37.7000
 X172.3131
 Y2.3000
 X176.9081
 Y37.7000
 X181.5030
 Y2.3000
 X186.0980
 Y37.7000
 X190.6929
 Y2.3000
 X195.2879
 Y37.7000
 X199.8828
 Y2.3000
 X204.4778
 Y37.7000
 X209.0727
 Y2.3000
 X213.6677
 Y37.7000
 X218.2626
 Y2.3000
 X222.8576
 Y37.7000
 X227.4525
 Y2.3000
 X232.0475
 Y37.7000
 X236.6424
 Y2.3000
 X241.2374
 Y37.7000
 X245.8323
 Y2.3000
 X250.4273
 Y37.7000
 X255.0222
 Y2.3000
 X259.6172
 Y37.7000
 X264.2121
 Y2.3000
 X268.8071
 Y37.7000
 X273.4020
 Y2.3000
 X277.9970
 Y37.7000
G0 Z50.0000
 X746.6818 Y2.3000
G1 Z26.8000
 Y37.7000
G0 Z50.0000
 X765.0616 Y2.3000
G1 Z26.8000
 Y37.7000
 X769.6566
 Y2.3000
 X774.2515
 Y37.7000
 X778.8465
 Y2.3000
 X783.4414
 Y37.7000
 X788.0364
 Y2.3000
 X792.6313
 Y37.7000
 X797.2263
 Y2.3000
 X801.8212
 Y37.7000
 X806.4162
 Y2.3000
 X811.0111
 Y37.7000
 X815.6061
 Y2.3000
 X820.2010
 Y37.7000
 X824.7960
 Y2.3000
 X829.3909
 Y37.7000
 X833.9859
 Y2.3000
 X838.5808
 Y37.7000
 X843.1758
 Y2.3000
 X847.7707
 Y37.7000
 X852.3657
 Y2.3000
 X856.9606
 Y37.7000
 X861.5556
 Y2.3000
 X866.1505
 Y37.7000
 X870.7455
 Y2.3000
 X875.3404
 Y37.7000
 X879.9354
 Y2.3000
 X884.5303
 Y37.7000
 X889.1253
 Y2.3000
 X893.7202
 Y37.7000
 X898.3152
 Y2.3000
 X902.9101
 Y37.7000
 X907.5051
 Y2.3000
 X912.1000
 Y37.7000
 Z23.8222
 Y2.3000
 X907.5051
 Y37.7000
 X902.9101
 Y2.3000
 X898.3152
 Y37.7000
 X893.7202
 Y2.3000
 X889.1253
 Y37.7000
 X884.5303
 Y2.3000
 X879.9354
 Y37.7000
 X875.3404
 Y2.3000
 X870.7455
 Y37.7000
 X866.1505
 Y2.3000
 X861.5556
 Y37.7000
 X856.9606
 Y2.3000
 X852.3657
 Y37.7000
 X847.7707
 Y2.3000
 X843.1758
 Y37.7000
 X838.5808
 Y2.3000
 X833.9859
 Y37.7000
 X829.3909
 Y2.3000
 X824.7960
 Y37.7000
 X820.2010
 Y2.3000
 X815.6061
 Y37.7000
 X811.0111
 Y2.3000
 X806.4162
 Y37.7000
 X801.8212
 Y2.3000
 X797.2263
 Y37.7000
 X792.6313
 Y2.3000
 X788.0364
 Y37.7000
 X783.4414
 Y2.3000
 X778.8465
 Y37.7000
 X774.2515
 Y2.3000
 X769.6566
 Y37.7000
 X765.0616
 Y2.3000
G0 Z50.0000
 X746.6818 Y37.7000
G1 Z23.8222
 Y2.3000
G0 Z50.0000
 X277.9970 Y37.7000
G1 Z23.8222
 Y2.3000
 X273.4020
 Y37.7000
 X268.8071
 Y2.3000
 X264.2121
 Y37.7000
 X259.6172
 Y2.3000
 X255.0222
 Y37.7000
 X250.4273
 Y2.3000
 X245.8323
 Y37.7000
 X241.2374
 Y2.3000
 X236.6424
 Y37.7000
 X232.0475
 Y2.3000
 X227.4525
 Y37.7000
 X222.8576
 Y2.3000
 X218.2626
 Y37.7000
 X213.6677
 Y2.3000
 X209.0727
 Y37.7000
 X204.4778
 Y2.3000
 X199.8828
 Y37.7000
 X195.2879
 Y2.3000
 X190.6929
 Y37.7000
 X186.0980
 Y2.3000
 X181.5030
 Y37.7000
 X176.9081
 Y2.3000
 X172.3131
 Y37.7000
 X167.7182
 Y2.3000
 X163.1232
 Y37.7000
 X158.5283
 Y2.3000
 X153.9333
 Y37.7000
 X149.3384
 Y2.3000
 X144.7434
 Y37.7000
 X140.1485
 Y2.3000
 X135.5535
 Y37.7000
 X130.9586
 Y2.3000
 X126.3636
 Y37.7000
 X121.7687
 Y2.3000
 X117.1737
 Y37.7000
 X112.5788
 Y2.3000
 X107.9838
 Y37.7000
 X103.3889
 Y2.3000
G0 Z50.0000
 X80.4141
G1 Z23.8222
 Y37.7000
G0 Z50.0000
 X57.4394
G1 Z23.8222
 Y2.3000
 X52.8444
 Y37.7000
 X48.2495
 Y2.3000
 X43.6545
 Y37.7000
 X39.0596
 Y2.3000
 X34.4646
 Y37.7000
 X29.8697
 Y2.3000
 X25.2747
 Y37.7000
 X20.6798
 Y2.3000
 X16.0848
 Y37.7000
 X11.4899
 Y2.3000
 X6.8949
 Y37.7000
 X2.3000
 Y2.3000
 Z20.8444
 Y37.7000
 X6.8949
 Y2.3000
 X11.4899
 Y37.7000
 X16.0848
 Y2.3000
 X20.6798
 Y37.7000
 X25.2747
 Y2.3000
 X29.8697
 Y37.7000
 X34.4646
 Y2.3000
 X39.0596
 Y37.7000
 X43.6545
 Y2.3000
 X48.2495
 Y37.7000
 X52.8444
 Y2.3000
 X57.4394
 Y37.7000
G0 Z50.0000
 X80.4141
G1 Z20.8444
 Y2.3000
G0 Z50.0000
 X103.3889
G1 Z20.8444
 Y37.7000
 X107.9838
 Y2.3000
 X112.5788
 Y37.7000
 X117.1737
 Y2.3000
 X121.7687
 Y37.7000
 X126.3636
 Y2.3000
 X130.9586
 Y37.7000
 X135.5535
 Y2.3000
 X140.1485
 Y37.7000
 X144.7434
 Y2.3000
 X149.3384
 Y37.7000
 X153.9333
 Y2.3000
 X158.5283
 Y37.7000
 X163.1232
 Y2.3000
 X167.7182
 Y37.7000
 X172.3131
 Y2.3000
 X176.9081
 Y37.7000
 X181.5030
 Y2.3000
 X186.0980
 Y37.7000
 X190.6929
 Y2.3000
 X195.2879
 Y37.7000
 X199.8828
 Y2.3000
 X204.4778
 Y37.7000
 X209.0727
 Y2.3000
 X213.6677
 Y37.7000
 X218.2626
 Y2.3000
 X222.8576
 Y37.7000
 X227.4525
 Y2.3000
 X232.0475
 Y37.7000
 X236.6424
 Y2.3000
 X241.2374
 Y37.7000
 X245.8323
 Y2.3000
 X250.4273
 Y37.7000
 X255.0222
 Y2.3000
 X259.6172
 Y37.7000
 X264.2121
 Y2.3000
 X268.8071
 Y37.7000
 X273.4020
 Y2.3000
 X277.9970
 Y37.7000
G0 Z50.0000
 X746.6818 Y2.3000
G1 Z20.8444
 Y37.7000
G0 Z50.0000
 X765.0616 Y2.3000
G1 Z20.8444
 Y37.7000
 X769.6566
 Y2.3000
 X774.2515
 Y37.7000
 X778.8465
 Y2.3000
 X783.4414
 Y37.7000
 X788.0364
 Y2.3000
 X792.6313
 Y37.7000
 X797.2263
 Y2.3000
 X801.8212
 Y37.7000
 X806.4162
 Y2.3000
 X811.0111
 Y37.7000
 X815.6061
 Y2.3000
 X820.2010
 Y37.7000
 X824.7960
 Y2.3000
 X829.3909
 Y37.7000
 X833.9859
 Y2.3000
 X838.5808
 Y37.7000
 X843.1758
 Y2.3000
 X847.7707
 Y37.7000
 X852.3657
 Y2.3000
 X856.9606
 Y37.7000
 X861.5556
 Y2.3000
 X866.1505
 Y37.7000
 X870.7455
 Y2.3000
 X875.3404
 Y37.7000
 X879.9354
 Y2.3000
 X884.5303
 Y37.7000
 X889.1253
 Y2.3000
 X893.7202
 Y37.7000
 X898.3152
 Y2.3000
 X902.9101
 Y37.7000
 X907.5051
 Y2.3000
 X912.1000
 Y37.7000
 Z17.8667
 Y2.3000
 X907.5051
 Y37.7000
 X902.9101
 Y2.3000
 X898.3152
 Y37.7000
 X893.7202
 Y2.3000
 X889.1253
 Y37.7000
 X884.5303
 Y2.3000
 X879.9354
 Y37.7000
 X875.3404
 Y2.3000
 X870.7455
 Y37.7000
 X866.1505
 Y2.3000
 X861.5556
 Y37.7000
 X856.9606
 Y2.3000
 X852.3657
 Y37.7000
 X847.7707
 Y2.3000
 X843.1758
 Y37.7000
 X838.5808
 Y2.3000
 X833.9859
 Y37.7000
 X829.3909
 Y2.3000
 X824.7960
 Y37.7000
 X820.2010
 Y2.3000
 X815.6061
 Y37.7000
 X811.0111
 Y2.3000
 X806.4162
 Y37.7000
 X801.8212
 Y2.3000
 X797.2263
 Y37.7000
 X792.6313
 Y2.3000
 X788.0364
 Y37.7000
 X783.4414
 Y2.3000
 X778.8465
 Y37.7000
 X774.2515
 Y2.3000
 X769.6566
 Y37.7000
 X765.0616
 Y2.3000
G0 Z50.0000
 X277.9970 Y37.7000
G1 Z17.8667
 Y2.3000
 X273.4020
 Y37.7000
 X268.8071
 Y2.3000
 X264.2121
 Y37.7000
 X259.6172
 Y2.3000
 X255.0222
 Y37.7000
 X250.4273
 Y2.3000
 X245.8323
 Y37.7000
 X241.2374
 Y2.3000
 X236.6424
 Y37.7000
 X232.0475
 Y2.3000
 X227.4525
 Y37.7000
 X222.8576
 Y2.3000
 X218.2626
 Y37.7000
 X213.6677
 Y2.3000
 X209.0727
 Y37.7000
 X204.4778
 Y2.3000
 X199.8828
 Y37.7000
 X195.2879
 Y2.3000
 X190.6929
 Y37.7000
 X186.0980
 Y2.3000
 X181.5030
 Y37.7000
 X176.9081
 Y2.3000
 X172.3131
 Y37.7000
 X167.7182
 Y2.3000
 X163.1232
 Y37.7000
 X158.5283
 Y2.3000
 X153.9333
 Y37.7000
 X149.3384
 Y2.3000
 X144.7434
 Y37.7000
 X140.1485
 Y2.3000
 X135.5535
 Y37.7000
 X130.9586
 Y2.3000
 X126.3636
 Y37.7000
 X121.7687
 Y2.3000
 X117.1737
 Y37.7000
 X112.5788
 Y2.3000
 X107.9838
 Y37.7000
 X103.3889
 Y2.3000
 Z14.8889
 Y37.7000
 X107.9838
 Y2.3000
 X112.5788
 Y37.7000
 X117.1737
 Y2.3000
 X121.7687
 Y37.7000
 X126.3636
 Y2.3000
 X130.9586
 Y37.7000
 X135.5535
 Y2.3000
 X140.1485
 Y37.7000
 X144.7434
 Y2.3000
 X149.3384
 Y37.7000
 X153.9333
 Y2.3000
 X158.5283
 Y37.7000
 X163.1232
 Y2.3000
 X167.7182
 Y37.7000
 X172.3131
 Y2.3000
 X176.9081
 Y37.7000
 X181.5030
 Y2.3000
 X186.0980
 Y37.7000
 X190.6929
 Y2.3000
 X195.2879
 Y37.7000
 X199.8828
 Y2.3000
 X204.4778
 Y37.7000
 X209.0727
 Y2.3000
 X213.6677
 Y37.7000
 X218.2626
 Y2.3000
 X222.8576
 Y37.7000
 X227.4525
 Y2.3000
 X232.0475
 Y37.7000
 X236.6424
 Y2.3000
 X241.2374
 Y37.7000
 X245.8323
 Y2.3000
 X250.4273
 Y37.7000
 X255.0222
 Y2.3000
 X259.6172
 Y37.7000
 X264.2121
 Y2.3000
 X268.8071
 Y37.7000
 X273.4020
 Y2.3000
 X277.9970
 Y37.7000
G0 Z50.0000
M5 (stop spindle)
G04 P3 (wait for 3 seconds)
F1000.00000
S1000.00000
;PYCAM_TOOLPATH_SETTINGS: START
;[Bounds]
;maxz = 26.7999992371
;maxx = 912.100024414
;maxy = 37.7
;minx = 2.3
;miny = 2.3
;minz = 0.0
;
;[Tool]
;torus_radius = 0.25
;speed = 1000.0
;shape = CylindricalCutter
;tool_radius = 2.3
;feedrate = 1000.0
;
;[Process]
;engrave_offset = 0.0
;step_down = 1.5
;generator = ContourFollow
;postprocessor = SimpleCutter
;overlap_percent = 0
;milling_style = conventional
;material_allowance = 0.0
;pocketing_type = none
;path_direction = x
;
;PYCAM_TOOLPATH_SETTINGS: END
G0 Z50.0000
M3 (start spindle)
G04 P3 (wait for 3 seconds)
 X764.3000 Y2.3000
G1 Z26.8000
 Y37.7000
G0 Z50.0000
 X749.7000
G1 Z26.8000
 Y2.3000
G0 Z50.0000
 X743.1875
G1 Z26.8000
 Y37.7000
G0 Z50.0000
 X281.0125
G1 Z26.8000
 Y2.3000
G0 Z50.0000
 X99.6125
G1 Z26.8000
 Y37.7000
G0 Z50.0000
 X85.0125
G1 Z26.8000
 Y2.3000
G0 Z50.0000
 X78.5000
G1 Z26.8000
 Y37.7000
G0 Z50.0000
 X63.9000
G1 Z26.8000
 Y2.3000
G0 Z50.0000
 X764.3000
G1 Z25.3111
 Y37.7000
G0 Z50.0000
 X749.7000
G1 Z25.3111
 Y2.3000
G0 Z50.0000
 X764.3000
G1 Z25.3111
 Y5.5144
G0 Z50.0000
 X743.1875 Y2.3000
G1 Z25.3111
 Y37.7000
G0 Z50.0000
 X749.7000 Y7.1458
G1 Z25.3111
 Y2.3000
G0 Z50.0000
 X743.1875
G1 Z25.3111
 Y7.1458
G0 Z50.0000
 X281.0125 Y4.4444
G1 Z25.3111
 Y2.3000
G0 Z50.0000
 Y37.7000
G1 Z25.3111
 Y2.3000
G0 Z50.0000
 X99.6125
G1 Z25.3111
 Y4.4444
 Y2.3000
 Y37.7000
G0 Z50.0000
 X85.0125
G1 Z25.3111
 Y2.3000
G0 Z50.0000
 Y7.1458
G1 Z25.3111
 Y2.3000
G0 Z50.0000
 X78.5000
G1 Z25.3111
 Y7.1458
G0 Z50.0000
 X62.4111 Y37.7000
G1 Z25.3111
 Y8.7582
 Y2.3000
G0 Z50.0000
 X764.3000
G1 Z23.8222
 Y37.7000
G0 Z50.0000
 X749.7000
G1 Z23.8222
 Y2.3000
G0 Z50.0000
 X764.3000
G1 Z23.8222
 Y11.0288
G0 Z50.0000
 X749.7000 Y14.2915
G1 Z23.8222
 Y2.3000
G0 Z50.0000
 X743.1875
G1 Z23.8222
 Y37.7000
G0 Z50.0000
 Y2.3000
G1 Z23.8222
 Y14.2915
G0 Z50.0000
 X281.0125 Y8.8889
G1 Z23.8222
 Y2.3000
G0 Z50.0000
 Y37.7000
G1 Z23.8222
 Y2.3000
G0 Z50.0000
 X99.6125
G1 Z23.8222
 Y37.7000
G0 Z50.0000
 Y2.3000
G1 Z23.8222
 Y8.8889
G0 Z50.0000
 X85.0125 Y37.7000
G1 Z23.8222
 Y2.3000
G0 Z50.0000
 Y14.2915
G1 Z23.8222
 Y2.3000
G0 Z50.0000
 X78.5000
G1 Z23.8222
 Y37.7000
G0 Z50.0000
 Y2.3000
G1 Z23.8222
 Y14.2915
G0 Z50.0000
 X60.9222 Y37.7000
G1 Z23.8222
 Y17.5163
 Y2.3000
G0 Z50.0000
 X764.3000
G1 Z22.3333
 Y37.7000
G0 Z50.0000
 X749.7000
G1 Z22.3333
 Y2.3000
G0 Z50.0000
 X764.3000
G1 Z22.3333
 Y16.5432
G0 Z50.0000
 X749.7000 Y21.4373
G1 Z22.3333
 Y2.3000
G0 Z50.0000
 X743.1875
G1 Z22.3333
 Y37.7000
G0 Z50.0000
 Y2.3000
G1 Z22.3333
 Y21.4373
G0 Z50.0000
 X281.0125 Y13.3333
G1 Z22.3333
 Y2.3000
G0 Z50.0000
 Y37.7000
G1 Z22.3333
 Y2.3000
G0 Z50.0000
 X99.6125
G1 Z22.3333
 Y37.7000
G0 Z50.0000
 Y2.3000
G1 Z22.3333
 Y13.3333
G0 Z50.0000
 X85.0125 Y37.7000
G1 Z22.3333
 Y2.3000
G0 Z50.0000
 Y21.4373
G1 Z22.3333
 Y2.3000
G0 Z50.0000
 X78.5000
G1 Z22.3333
 Y37.7000
G0 Z50.0000
 Y2.3000
G1 Z22.3333
 Y21.4373
G0 Z50.0000
 X59.4333 Y37.7000
G1 Z22.3333
 Y26.2745
 Y2.3000
G0 Z50.0000
 X764.3000
G1 Z20.8444
 Y37.7000
G0 Z50.0000
 X749.7000
G1 Z20.8444
 Y2.3000
G0 Z50.0000
 X764.3000
G1 Z20.8444
 Y22.0576
G0 Z50.0000
 X749.7000 Y28.5831
G1 Z20.8444
 Y2.3000
G0 Z50.0000
 X743.1875
G1 Z20.8444
 Y37.7000
G0 Z50.0000
 Y2.3000
G1 Z20.8444
 Y28.5831
G0 Z50.0000
 X281.0125 Y37.7000
G1 Z20.8444
 Y2.3000
G0 Z50.0000
 Y17.7778
G1 Z20.8444
 Y2.3000
G0 Z50.0000
 X99.6125
G1 Z20.8444
 Y37.7000
G0 Z50.0000
 Y2.3000
G1 Z20.8444
 Y17.7778
G0 Z50.0000
 X85.0125 Y37.7000
G1 Z20.8444
 Y2.3000
G0 Z50.0000
 Y28.5831
G1 Z20.8444
 Y2.3000
G0 Z50.0000
 X78.5000
G1 Z20.8444
 Y28.5831
G0 Z50.0000
 X57.9444 Y37.7000
G1 Z20.8444
 Y35.0327
 Y2.3000
G0 Z50.0000
 X764.3000
G1 Z19.3556
 Y37.7000
G0 Z50.0000
 X749.7000
G1 Z19.3556
 Y2.3000
G0 Z50.0000
 X764.3000
G1 Z19.3556
 Y27.5720
G0 Z50.0000
 X749.7000 Y35.7289
G1 Z19.3556
 Y2.3000
G0 Z50.0000
 X743.1875
G1 Z19.3556
 Y37.7000
G0 Z50.0000
 Y2.3000
G1 Z19.3556
 Y35.7289
G0 Z50.0000
 X281.0125 Y22.2222
G1 Z19.3556
 Y2.3000
G0 Z50.0000
 Y37.7000
G1 Z19.3556
 Y2.3000
G0 Z50.0000
 X99.6125
G1 Z19.3556
 Y37.7000
G0 Z50.0000
 Y2.3000
G1 Z19.3556
 Y22.2222
G0 Z50.0000
 X85.0125 Y37.7000
G1 Z19.3556
 Y2.3000
G0 Z50.0000
 Y35.7289
G1 Z19.3556
 Y2.3000
G0 Z50.0000
 X78.5000
G1 Z19.3556
 Y37.7000
G0 Z50.0000
 Y2.3000
G1 Z19.3556
 Y35.7289
G0 Z50.0000
 X764.3000 Y2.3000
G1 Z17.8667
 Y37.7000
G0 Z50.0000
 Y2.3000
G1 Z17.8667
 Y33.0864
G0 Z50.0000
 X281.0125 Y26.6667
G1 Z17.8667
 Y2.3000
G0 Z50.0000
 Y37.7000
G1 Z17.8667
 Y2.3000
G0 Z50.0000
 X99.6125
G1 Z17.8667
 Y37.7000
G0 Z50.0000
 Y2.3000
G1 Z17.8667
 Y26.6667
G0 Z50.0000
 X764.3000 Y2.3000
G1 Z16.3778
 Y37.7000
G0 Z50.0000
 Y2.3000
G1 Z16.3778
 Y37.7000
G0 Z50.0000
 X281.0125 Y31.1111
G1 Z16.3778
 Y2.3000
G0 Z50.0000
 Y37.7000
G1 Z16.3778
 Y2.3000
G0 Z50.0000
 X99.6125
G1 Z16.3778
 Y37.7000
G0 Z50.0000
 Y2.3000
G1 Z16.3778
 Y31.1111
G0 Z50.0000
 X281.0125 Y35.5556
G1 Z14.8889
 Y2.3000
G0 Z50.0000
 Y37.7000
G1 Z14.8889
 Y2.3000
G0 Z50.0000
 X99.6125
G1 Z14.8889
 Y37.7000
G0 Z50.0000
 Y2.3000
G1 Z14.8889
 Y35.5556
G0 Z50.0000
M5 (stop spindle)
G04 P3 (wait for 3 seconds)
G0 Z50.0000
M2 (end program)
