;PYCAM-META-DATA: Filename: /home/tony/Documents/chickiboom/CBGneck-pad-40mmwide.stl
;PYCAM-META-DATA: Timestamp: 2014-03-17 16:17:06.662616
;PYCAM-META-DATA: Version: 0.5.1
;Estimated machine time: 39 minutes
G40 (disable tool radius compensation)
G49 (disable tool length compensation)
G80 (cancel modal motion)
G54 (select coordinate system 1)
G90 (disable incremental moves)
G21 (metric)
G61 (exact path mode)
F1000.00000
S1000.00000
;PYCAM_TOOLPATH_SETTINGS: START
;[Bounds]
;maxz = 38.0999984741
;maxx = 912.100024414
;maxy = 37.7
;minx = 2.3
;miny = 2.3
;minz = 0.0
;
;[Tool]
;torus_radius = 0.25
;speed = 1000.0
;shape = CylindricalCutter
;tool_radius = 2.3
;feedrate = 1000.0
;
;[Process]
;engrave_offset = 0.0
;step_down = 4.0
;generator = PushCutter
;postprocessor = SimpleCutter
;milling_style = ignore
;material_allowance = 0.5
;pocketing_type = none
;path_direction = y
;
;PYCAM_TOOLPATH_SETTINGS: END
T1 M6
G0 Z25.0000
M3 (start spindle)
G04 P3 (wait for 3 seconds)
 X2.3000 Y2.3000
G1 Z38.1000
 Y37.7000
 X6.8949
 Y2.3000
 X11.4899
 Y37.7000
 X16.0848
 Y2.3000
 X20.6798
 Y37.7000
 X25.2747
 Y2.3000
 X29.8697
 Y37.7000
 X34.4646
 Y2.3000
 X39.0596
 Y37.7000
 X43.6545
 Y2.3000
 X48.2495
 Y37.7000
 X52.8444
 Y2.3000
 X57.4394
 Y37.7000
 X62.0343
 Y2.3000
G0 Z25.0000
 X80.4141 Y37.7000
G1 Z38.1000
 Y2.3000
G0 Z25.0000
 X103.3889
G1 Z38.1000
 Y37.7000
 X107.9838
 Y2.3000
 X112.5788
 Y37.7000
 X117.1737
 Y2.3000
 X121.7687
 Y37.7000
 X126.3636
 Y2.3000
 X130.9586
 Y37.7000
 X135.5535
 Y2.3000
 X140.1485
 Y37.7000
 X144.7434
 Y2.3000
 X149.3384
 Y37.7000
 X153.9333
 Y2.3000
 X158.5283
 Y37.7000
 X163.1232
 Y2.3000
 X167.7182
 Y37.7000
 X172.3131
 Y2.3000
 X176.9081
 Y37.7000
 X181.5030
 Y2.3000
 X186.0980
 Y37.7000
 X190.6929
 Y2.3000
 X195.2879
 Y37.7000
 X199.8828
 Y2.3000
 X204.4778
 Y37.7000
 X209.0727
 Y2.3000
 X213.6677
 Y37.7000
 X218.2626
 Y2.3000
 X222.8576
 Y37.7000
 X227.4525
 Y2.3000
 X232.0475
 Y37.7000
 X236.6424
 Y2.3000
 X241.2374
 Y37.7000
 X245.8323
 Y2.3000
 X250.4273
 Y37.7000
 X255.0222
 Y2.3000
 X259.6172
 Y37.7000
 X264.2121
 Y2.3000
 X268.8071
 Y37.7000
 X273.4020
 Y2.3000
 X277.9970
 Y37.7000
 X282.5919
 Y2.3000
 X287.1869
 Y37.7000
 X291.7818
 Y2.3000
 X296.3768
 Y37.7000
 X300.9717
 Y2.3000
 X305.5667
 Y37.7000
 X310.1616
 Y2.3000
 X314.7566
 Y37.7000
 X319.3515
 Y2.3000
 X323.9465
 Y37.7000
G0 Z25.0000
 X746.6818 Y2.3000
G1 Z38.1000
 Y37.7000
G0 Z25.0000
 X765.0616 Y2.3000
G1 Z38.1000
 Y37.7000
 X769.6566
 Y2.3000
 X774.2515
 Y37.7000
 X778.8465
 Y2.3000
 X783.4414
 Y37.7000
 X788.0364
 Y2.3000
 X792.6313
 Y37.7000
 X797.2263
 Y2.3000
 X801.8212
 Y37.7000
 X806.4162
 Y2.3000
 X811.0111
 Y37.7000
 X815.6061
 Y2.3000
 X820.2010
 Y37.7000
 X824.7960
 Y2.3000
 X829.3909
 Y37.7000
 X833.9859
 Y2.3000
 X838.5808
 Y37.7000
 X843.1758
 Y2.3000
 X847.7707
 Y37.7000
 X852.3657
 Y2.3000
 X856.9606
 Y37.7000
 X861.5556
 Y2.3000
 X866.1505
 Y37.7000
 X870.7455
 Y2.3000
 X875.3404
 Y37.7000
 X879.9354
 Y2.3000
 X884.5303
 Y37.7000
 X889.1253
 Y2.3000
 X893.7202
 Y37.7000
 X898.3152
 Y2.3000
 X902.9101
 Y37.7000
 X907.5051
 Y2.3000
 X912.1000
 Y37.7000
 Z34.2900
 Y2.3000
 X907.5051
 Y37.7000
 X902.9101
 Y2.3000
 X898.3152
 Y37.7000
 X893.7202
 Y2.3000
 X889.1253
 Y37.7000
 X884.5303
 Y2.3000
 X879.9354
 Y37.7000
 X875.3404
 Y2.3000
 X870.7455
 Y37.7000
 X866.1505
 Y2.3000
 X861.5556
 Y37.7000
 X856.9606
 Y2.3000
 X852.3657
 Y37.7000
 X847.7707
 Y2.3000
 X843.1758
 Y37.7000
 X838.5808
 Y2.3000
 X833.9859
 Y37.7000
 X829.3909
 Y2.3000
 X824.7960
 Y37.7000
 X820.2010
 Y2.3000
 X815.6061
 Y37.7000
 X811.0111
 Y2.3000
 X806.4162
 Y37.7000
 X801.8212
 Y2.3000
 X797.2263
 Y37.7000
 X792.6313
 Y2.3000
 X788.0364
 Y37.7000
 X783.4414
 Y2.3000
 X778.8465
 Y37.7000
 X774.2515
 Y2.3000
 X769.6566
 Y37.7000
 X765.0616
 Y2.3000
G0 Z25.0000
 X746.6818 Y37.7000
G1 Z34.2900
 Y2.3000
G0 Z25.0000
 X323.9465 Y37.7000
G1 Z34.2900
 Y2.3000
 X319.3515
 Y37.7000
 X314.7566
 Y2.3000
 X310.1616
 Y37.7000
 X305.5667
 Y2.3000
 X300.9717
 Y37.7000
 X296.3768
 Y2.3000
 X291.7818
 Y37.7000
 X287.1869
 Y2.3000
 X282.5919
 Y37.7000
 X277.9970
 Y2.3000
 X273.4020
 Y37.7000
 X268.8071
 Y2.3000
 X264.2121
 Y37.7000
 X259.6172
 Y2.3000
 X255.0222
 Y37.7000
 X250.4273
 Y2.3000
 X245.8323
 Y37.7000
 X241.2374
 Y2.3000
 X236.6424
 Y37.7000
 X232.0475
 Y2.3000
 X227.4525
 Y37.7000
 X222.8576
 Y2.3000
 X218.2626
 Y37.7000
 X213.6677
 Y2.3000
 X209.0727
 Y37.7000
 X204.4778
 Y2.3000
 X199.8828
 Y37.7000
 X195.2879
 Y2.3000
 X190.6929
 Y37.7000
 X186.0980
 Y2.3000
 X181.5030
 Y37.7000
 X176.9081
 Y2.3000
 X172.3131
 Y37.7000
 X167.7182
 Y2.3000
 X163.1232
 Y37.7000
 X158.5283
 Y2.3000
 X153.9333
 Y37.7000
 X149.3384
 Y2.3000
 X144.7434
 Y37.7000
 X140.1485
 Y2.3000
 X135.5535
 Y37.7000
 X130.9586
 Y2.3000
 X126.3636
 Y37.7000
 X121.7687
 Y2.3000
 X117.1737
 Y37.7000
 X112.5788
 Y2.3000
 X107.9838
 Y37.7000
 X103.3889
 Y2.3000
G0 Z25.0000
 X80.4141
G1 Z34.2900
 Y37.7000
G0 Z25.0000
 X57.4394
G1 Z34.2900
 Y2.3000
 X52.8444
 Y37.7000
 X48.2495
 Y2.3000
 X43.6545
 Y37.7000
 X39.0596
 Y2.3000
 X34.4646
 Y37.7000
 X29.8697
 Y2.3000
 X25.2747
 Y37.7000
 X20.6798
 Y2.3000
 X16.0848
 Y37.7000
 X11.4899
 Y2.3000
 X6.8949
 Y37.7000
 X2.3000
 Y2.3000
 Z30.4800
 Y37.7000
 X6.8949
 Y2.3000
 X11.4899
 Y37.7000
 X16.0848
 Y2.3000
 X20.6798
 Y37.7000
 X25.2747
 Y2.3000
 X29.8697
 Y37.7000
 X34.4646
 Y2.3000
 X39.0596
 Y37.7000
 X43.6545
 Y2.3000
 X48.2495
 Y37.7000
 X52.8444
 Y2.3000
G0 Z25.0000
 X80.4141 Y37.7000
G1 Z30.4800
 Y2.3000
G0 Z25.0000
 X103.3889
G1 Z30.4800
 Y37.7000
 X107.9838
 Y2.3000
 X112.5788
 Y37.7000
 X117.1737
 Y2.3000
 X121.7687
 Y37.7000
 X126.3636
 Y2.3000
 X130.9586
 Y37.7000
 X135.5535
 Y2.3000
 X140.1485
 Y37.7000
 X144.7434
 Y2.3000
 X149.3384
 Y37.7000
 X153.9333
 Y2.3000
 X158.5283
 Y37.7000
 X163.1232
 Y2.3000
 X167.7182
 Y37.7000
 X172.3131
 Y2.3000
 X176.9081
 Y37.7000
 X181.5030
 Y2.3000
 X186.0980
 Y37.7000
 X190.6929
 Y2.3000
 X195.2879
 Y37.7000
 X199.8828
 Y2.3000
 X204.4778
 Y37.7000
 X209.0727
 Y2.3000
 X213.6677
 Y37.7000
 X218.2626
 Y2.3000
 X222.8576
 Y37.7000
 X227.4525
 Y2.3000
 X232.0475
 Y37.7000
 X236.6424
 Y2.3000
 X241.2374
 Y37.7000
 X245.8323
 Y2.3000
 X250.4273
 Y37.7000
 X255.0222
 Y2.3000
 X259.6172
 Y37.7000
 X264.2121
 Y2.3000
 X268.8071
 Y37.7000
 X273.4020
 Y2.3000
 X277.9970
 Y37.7000
 X282.5919
 Y2.3000
 X287.1869
 Y37.7000
 X291.7818
 Y2.3000
 X296.3768
 Y37.7000
 X300.9717
 Y2.3000
 X305.5667
 Y37.7000
 X310.1616
 Y2.3000
 X314.7566
 Y37.7000
 X319.3515
 Y2.3000
 X323.9465
 Y37.7000
G0 Z25.0000
 X746.6818 Y2.3000
G1 Z30.4800
 Y37.7000
G0 Z25.0000
 X765.0616 Y2.3000
G1 Z30.4800
 Y37.7000
 X769.6566
 Y2.3000
 X774.2515
 Y37.7000
 X778.8465
 Y2.3000
 X783.4414
 Y37.7000
 X788.0364
 Y2.3000
 X792.6313
 Y37.7000
 X797.2263
 Y2.3000
 X801.8212
 Y37.7000
 X806.4162
 Y2.3000
 X811.0111
 Y37.7000
 X815.6061
 Y2.3000
 X820.2010
 Y37.7000
 X824.7960
 Y2.3000
 X829.3909
 Y37.7000
 X833.9859
 Y2.3000
 X838.5808
 Y37.7000
 X843.1758
 Y2.3000
 X847.7707
 Y37.7000
 X852.3657
 Y2.3000
 X856.9606
 Y37.7000
 X861.5556
 Y2.3000
 X866.1505
 Y37.7000
 X870.7455
 Y2.3000
 X875.3404
 Y37.7000
 X879.9354
 Y2.3000
 X884.5303
 Y37.7000
 X889.1253
 Y2.3000
 X893.7202
 Y37.7000
 X898.3152
 Y2.3000
 X902.9101
 Y37.7000
 X907.5051
 Y2.3000
 X912.1000
 Y37.7000
G0 Z25.0000
 X323.9465
G1 Z26.6700
 Y2.3000
 X319.3515
 Y37.7000
 X314.7566
 Y2.3000
 X310.1616
 Y37.7000
 X305.5667
 Y2.3000
 X300.9717
 Y37.7000
 X296.3768
 Y2.3000
 X291.7818
 Y37.7000
 X287.1869
 Y2.3000
 X282.5919
 Y37.7000
 X277.9970
 Y2.3000
 X273.4020
 Y37.7000
 X268.8071
 Y2.3000
 X264.2121
 Y37.7000
 X259.6172
 Y2.3000
 X255.0222
 Y37.7000
 X250.4273
 Y2.3000
 X245.8323
 Y37.7000
 X241.2374
 Y2.3000
 X236.6424
 Y37.7000
 X232.0475
 Y2.3000
 X227.4525
 Y37.7000
 X222.8576
 Y2.3000
 X218.2626
 Y37.7000
 X213.6677
 Y2.3000
 X209.0727
 Y37.7000
 X204.4778
 Y2.3000
 X199.8828
 Y37.7000
 X195.2879
 Y2.3000
 X190.6929
 Y37.7000
 X186.0980
 Y2.3000
 X181.5030
 Y37.7000
 X176.9081
 Y2.3000
 X172.3131
 Y37.7000
 X167.7182
 Y2.3000
 X163.1232
 Y37.7000
 X158.5283
 Y2.3000
 X153.9333
 Y37.7000
 X149.3384
 Y2.3000
 X144.7434
 Y37.7000
 X140.1485
 Y2.3000
 X135.5535
 Y37.7000
 X130.9586
 Y2.3000
 X126.3636
 Y37.7000
 X121.7687
 Y2.3000
 X117.1737
 Y37.7000
 X112.5788
 Y2.3000
 X107.9838
 Y37.7000
 X103.3889
 Y2.3000
 Z22.8600
 Y37.7000
 X107.9838
 Y2.3000
 X112.5788
 Y37.7000
 X117.1737
 Y2.3000
 X121.7687
 Y37.7000
 X126.3636
 Y2.3000
 X130.9586
 Y37.7000
 X135.5535
 Y2.3000
 X140.1485
 Y37.7000
 X144.7434
 Y2.3000
 X149.3384
 Y37.7000
 X153.9333
 Y2.3000
 X158.5283
 Y37.7000
 X163.1232
 Y2.3000
 X167.7182
 Y37.7000
 X172.3131
 Y2.3000
 X176.9081
 Y37.7000
 X181.5030
 Y2.3000
 X186.0980
 Y37.7000
 X190.6929
 Y2.3000
 X195.2879
 Y37.7000
 X199.8828
 Y2.3000
 X204.4778
 Y37.7000
 X209.0727
 Y2.3000
 X213.6677
 Y37.7000
 X218.2626
 Y2.3000
 X222.8576
 Y37.7000
 X227.4525
 Y2.3000
 X232.0475
 Y37.7000
 X236.6424
 Y2.3000
 X241.2374
 Y37.7000
 X245.8323
 Y2.3000
 X250.4273
 Y37.7000
 X255.0222
 Y2.3000
 X259.6172
 Y37.7000
 X264.2121
 Y2.3000
 X268.8071
 Y37.7000
 X273.4020
 Y2.3000
 X277.9970
 Y37.7000
 X282.5919
 Y2.3000
 X287.1869
 Y37.7000
 X291.7818
 Y2.3000
 X296.3768
 Y37.7000
 X300.9717
 Y2.3000
 X305.5667
 Y37.7000
 X310.1616
 Y2.3000
 X314.7566
 Y37.7000
 X319.3515
 Y2.3000
 X323.9465
 Y37.7000
 Z19.0500
 Y2.3000
 X319.3515
 Y37.7000
 X314.7566
 Y2.3000
 X310.1616
 Y37.7000
 X305.5667
 Y2.3000
 X300.9717
 Y37.7000
 X296.3768
 Y2.3000
 X291.7818
 Y37.7000
 X287.1869
 Y2.3000
 X282.5919
 Y37.7000
 X277.9970
 Y2.3000
 X273.4020
 Y37.7000
 X268.8071
 Y2.3000
 X264.2121
 Y37.7000
 X259.6172
 Y2.3000
 X255.0222
 Y37.7000
 X250.4273
 Y2.3000
 X245.8323
 Y37.7000
 X241.2374
 Y2.3000
 X236.6424
 Y37.7000
 X232.0475
 Y2.3000
 X227.4525
 Y37.7000
 X222.8576
 Y2.3000
 X218.2626
 Y37.7000
 X213.6677
 Y2.3000
 X209.0727
 Y37.7000
 X204.4778
 Y2.3000
 X199.8828
 Y37.7000
 X195.2879
 Y2.3000
 X190.6929
 Y37.7000
 X186.0980
 Y2.3000
 X181.5030
 Y37.7000
 X176.9081
 Y2.3000
 X172.3131
 Y37.7000
 X167.7182
 Y2.3000
 X163.1232
 Y37.7000
 X158.5283
 Y2.3000
 X153.9333
 Y37.7000
 X149.3384
 Y2.3000
 X144.7434
 Y37.7000
 X140.1485
 Y2.3000
 X135.5535
 Y37.7000
 X130.9586
 Y2.3000
 X126.3636
 Y37.7000
 X121.7687
 Y2.3000
 X117.1737
 Y37.7000
 X112.5788
 Y2.3000
 X107.9838
 Y37.7000
 X103.3889
 Y2.3000
G0 Z25.0000
M5 (stop spindle)
G04 P3 (wait for 3 seconds)
F1000.00000
S1000.00000
;PYCAM_TOOLPATH_SETTINGS: START
;[Bounds]
;maxz = 38.0999984741
;maxx = 912.100024414
;maxy = 37.7
;minx = 2.3
;miny = 2.3
;minz = 0.0
;
;[Tool]
;torus_radius = 0.25
;speed = 1000.0
;shape = CylindricalCutter
;tool_radius = 2.3
;feedrate = 1000.0
;
;[Process]
;engrave_offset = 0.0
;step_down = 1.5
;generator = ContourFollow
;postprocessor = SimpleCutter
;overlap_percent = 0
;milling_style = conventional
;material_allowance = 0.0
;pocketing_type = none
;path_direction = x
;
;PYCAM_TOOLPATH_SETTINGS: END
G0 Z25.0000
M3 (start spindle)
G04 P3 (wait for 3 seconds)
 X764.3000 Y2.3000
G1 Z38.1000
 Y37.7000
G0 Z25.0000
 X749.7000
G1 Z38.1000
 Y2.3000
G0 Z25.0000
 X743.1875
G1 Z38.1000
 Y37.7000
G0 Z25.0000
 X328.4203
G1 Z38.1000
 Y2.3000
G0 Z25.0000
 X99.6125
G1 Z38.1000
 Y37.7000
G0 Z25.0000
 X78.5000 Y2.3000
G1 Z38.1000
 Y37.7000
G0 Z25.0000
 X85.0125
G1 Z38.1000
 Y2.3000
G0 Z25.0000
 X63.9000 Y37.7000
G1 Z38.1000
 Y2.3000
G0 Z25.0000
 X764.3000
G1 Z36.6346
 Y37.7000
G0 Z25.0000
 Y2.3000
G1 Z36.6346
 Y6.1538
G0 Z25.0000
 X749.7000 Y37.7000
G1 Z36.6346
 Y2.3000
G0 Z25.0000
 Y7.0330
G1 Z36.6346
 Y2.3000
G0 Z25.0000
 X743.1875
G1 Z36.6346
 Y37.7000
G0 Z25.0000
 Y2.3000
G1 Z36.6346
 Y7.0330
G0 Z25.0000
 X328.4203 Y3.0769
G1 Z36.6346
 Y2.3000
G0 Z25.0000
 Y37.7000
G1 Z36.6346
 Y2.3000
G0 Z25.0000
 X99.6125
G1 Z36.6346
 Y3.0769
 Y2.3000
 Y37.7000
G0 Z25.0000
 X85.0125 Y7.0330
G1 Z36.6346
 Y2.3000
G0 Z25.0000
 Y37.7000
G1 Z36.6346
 Y2.3000
G0 Z25.0000
 X78.5000
G1 Z36.6346
 Y37.7000
G0 Z25.0000
 Y2.3000
G1 Z36.6346
 Y7.0330
G0 Z25.0000
 X62.4346 Y37.7000
G1 Z36.6346
 Y6.1538
 Y2.3000
G0 Z25.0000
 X764.3000
G1 Z35.1692
 Y37.7000
G0 Z25.0000
 Y2.3000
G1 Z35.1692
 Y12.3077
G0 Z25.0000
 X749.7000 Y37.7000
G1 Z35.1692
 Y2.3000
G0 Z25.0000
 Y14.0659
G1 Z35.1692
 Y2.3000
G0 Z25.0000
 X743.1875
G1 Z35.1692
 Y37.7000
G0 Z25.0000
 Y2.3000
G1 Z35.1692
 Y14.0659
G0 Z25.0000
 X328.4203 Y6.1538
G1 Z35.1692
 Y2.3000
G0 Z25.0000
 Y37.7000
G1 Z35.1692
 Y2.3000
G0 Z25.0000
 X99.6125
G1 Z35.1692
 Y37.7000
G0 Z25.0000
 Y2.3000
G1 Z35.1692
 Y6.1538
G0 Z25.0000
 X85.0125 Y14.0659
G1 Z35.1692
 Y2.3000
G0 Z25.0000
 Y37.7000
G1 Z35.1692
 Y2.3000
G0 Z25.0000
 X78.5000
G1 Z35.1692
 Y37.7000
G0 Z25.0000
 Y2.3000
G1 Z35.1692
 Y14.0659
G0 Z25.0000
 X60.9692 Y37.7000
G1 Z35.1692
 Y12.3077
 Y2.3000
G0 Z25.0000
 X764.3000
G1 Z33.7038
 Y37.7000
G0 Z25.0000
 Y2.3000
G1 Z33.7038
 Y18.4615
G0 Z25.0000
 X749.7000 Y37.7000
G1 Z33.7038
 Y2.3000
G0 Z25.0000
 Y21.0989
G1 Z33.7038
 Y2.3000
G0 Z25.0000
 X743.1875
G1 Z33.7038
 Y37.7000
G0 Z25.0000
 Y2.3000
G1 Z33.7038
 Y21.0989
G0 Z25.0000
 X328.4203 Y9.2308
G1 Z33.7038
 Y2.3000
G0 Z25.0000
 Y37.7000
G1 Z33.7038
 Y2.3000
G0 Z25.0000
 X99.6125
G1 Z33.7038
 Y37.7000
G0 Z25.0000
 Y2.3000
G1 Z33.7038
 Y9.2308
G0 Z25.0000
 X85.0125 Y21.0989
G1 Z33.7038
 Y2.3000
G0 Z25.0000
 Y37.7000
G1 Z33.7038
 Y2.3000
G0 Z25.0000
 X78.5000
G1 Z33.7038
 Y37.7000
G0 Z25.0000
 Y2.3000
G1 Z33.7038
 Y21.0989
G0 Z25.0000
 X59.5038 Y37.7000
G1 Z33.7038
 Y18.4615
 Y2.3000
G0 Z25.0000
 X764.3000
G1 Z32.2385
 Y37.7000
G0 Z25.0000
 Y2.3000
G1 Z32.2385
 Y24.6154
G0 Z25.0000
 X749.7000 Y37.7000
G1 Z32.2385
 Y2.3000
G0 Z25.0000
 Y28.1319
G1 Z32.2385
 Y2.3000
G0 Z25.0000
 X743.1875
G1 Z32.2385
 Y37.7000
G0 Z25.0000
 Y2.3000
G1 Z32.2385
 Y28.1319
G0 Z25.0000
 X328.4203 Y12.3077
G1 Z32.2385
 Y2.3000
G0 Z25.0000
 Y37.7000
G1 Z32.2385
 Y2.3000
G0 Z25.0000
 X99.6125
G1 Z32.2385
 Y37.7000
G0 Z25.0000
 Y2.3000
G1 Z32.2385
 Y12.3077
G0 Z25.0000
 X85.0125 Y28.1319
G1 Z32.2385
 Y2.3000
G0 Z25.0000
 Y37.7000
G1 Z32.2385
 Y2.3000
G0 Z25.0000
 X78.5000
G1 Z32.2385
 Y28.1319
G0 Z25.0000
 X58.0385 Y37.7000
G1 Z32.2385
 Y24.6154
 Y2.3000
G0 Z25.0000
 X764.3000
G1 Z30.7731
 Y37.7000
G0 Z25.0000
 Y2.3000
G1 Z30.7731
 Y30.7692
G0 Z25.0000
 X749.7000 Y37.7000
G1 Z30.7731
 Y2.3000
G0 Z25.0000
 Y35.1648
G1 Z30.7731
 Y2.3000
G0 Z25.0000
 X743.1875
G1 Z30.7731
 Y37.7000
G0 Z25.0000
 Y2.3000
G1 Z30.7731
 Y35.1648
G0 Z25.0000
 X328.4203 Y15.3846
G1 Z30.7731
 Y2.3000
G0 Z25.0000
 Y37.7000
G1 Z30.7731
 Y2.3000
G0 Z25.0000
 X99.6125
G1 Z30.7731
 Y37.7000
G0 Z25.0000
 Y2.3000
G1 Z30.7731
 Y15.3846
G0 Z25.0000
 X85.0125 Y35.1648
G1 Z30.7731
 Y2.3000
G0 Z25.0000
 X78.5000
G1 Z30.7731
 Y37.7000
G0 Z25.0000
 X85.0125
G1 Z30.7731
 Y2.3000
G0 Z25.0000
 X78.5000
G1 Z30.7731
 Y35.1648
G0 Z25.0000
 X56.5731 Y37.7000
G1 Z30.7731
 Y30.7692
 Y2.3000
G0 Z25.0000
 X764.3000
G1 Z29.3077
 Y37.7000
G0 Z25.0000
 Y2.3000
G1 Z29.3077
 Y36.9231
G0 Z25.0000
 X328.4203 Y18.4615
G1 Z29.3077
 Y2.3000
G0 Z25.0000
 Y37.7000
G1 Z29.3077
 Y2.3000
G0 Z25.0000
 X99.6125
G1 Z29.3077
 Y37.7000
G0 Z25.0000
 Y2.3000
G1 Z29.3077
 Y18.4615
G0 Z25.0000
 X55.1077 Y37.7000
G1 Z29.3077
 Y36.9231
 Y2.3000
G0 Z25.0000
 X328.4203 Y21.5385
G1 Z27.8423
 Y2.3000
G0 Z25.0000
 Y37.7000
G1 Z27.8423
 Y2.3000
G0 Z25.0000
 X99.6125
G1 Z27.8423
 Y37.7000
G0 Z25.0000
 Y2.3000
G1 Z27.8423
 Y21.5385
G0 Z25.0000
 X328.4203 Y24.6154
G1 Z26.3769
 Y2.3000
G0 Z25.0000
 Y37.7000
G1 Z26.3769
 Y2.3000
G0 Z25.0000
 X99.6125
G1 Z26.3769
 Y37.7000
G0 Z25.0000
 Y2.3000
G1 Z26.3769
 Y24.6154
G0 Z25.0000
 X328.4203 Y27.6923
G1 Z24.9115
 Y2.3000
G0 Z25.0000
 Y37.7000
G1 Z24.9115
 Y2.3000
G0 Z25.0000
 X99.6125
G1 Z24.9115
 Y37.7000
G0 Z25.0000
 Y2.3000
G1 Z24.9115
 Y27.6923
G0 Z25.0000
 X328.4203 Y30.7692
G1 Z23.4462
 Y2.3000
G0 Z25.0000
 Y37.7000
G1 Z23.4462
 Y2.3000
G0 Z25.0000
 X99.6125
G1 Z23.4462
 Y37.7000
G0 Z25.0000
 Y2.3000
G1 Z23.4462
 Y30.7692
G0 Z25.0000
 X328.4203 Y33.8462
G1 Z21.9808
 Y2.3000
G0 Z25.0000
 Y37.7000
G1 Z21.9808
 Y2.3000
G0 Z25.0000
 X99.6125
G1 Z21.9808
 Y37.7000
G0 Z25.0000
 Y2.3000
G1 Z21.9808
 Y33.8462
G0 Z25.0000
 X328.4203 Y36.9231
G1 Z20.5154
 Y2.3000
G0 Z25.0000
 Y37.7000
G1 Z20.5154
 Y2.3000
G0 Z25.0000
 X99.6125
G1 Z20.5154
 Y37.7000
G0 Z25.0000
 Y2.3000
G1 Z20.5154
 Y36.9231
G0 Z25.0000
 X328.4203 Y37.7000
G1 Z19.0500
 Y2.3000
G0 Z25.0000
 X99.6125
G1 Z19.0500
 Y37.7000
G0 Z25.0000
M5 (stop spindle)
G04 P3 (wait for 3 seconds)
G0 Z25.0000
M2 (end program)
