;PYCAM-META-DATA: Filename: /home/tony/chickiboom/HeadstockOnly140mm.stl
;PYCAM-META-DATA: Timestamp: 2014-04-28 20:11:49.511185
;PYCAM-META-DATA: Version: 0.5.1
;Estimated machine time: 16 minutes
G40 (disable tool radius compensation)
G49 (disable tool length compensation)
G80 (cancel modal motion)
G54 (select coordinate system 1)
G90 (disable incremental moves)
G21 (metric)
G61 (exact path mode)
F800.00000
S1000.00000
;PYCAM_TOOLPATH_SETTINGS: START
;[Bounds]
;maxz = 26.7999992371
;maxx = 897.957512207
;maxy = 134.445
;minx = 5.555
;miny = 5.555
;minz = 0.0
;
;[Tool]
;torus_radius = 0.25
;speed = 1000.0
;shape = CylindricalCutter
;tool_radius = 5.555
;feedrate = 800.0
;
;[Process]
;engrave_offset = 0.0
;step_down = 3.0
;generator = PushCutter
;postprocessor = SimpleCutter
;milling_style = ignore
;material_allowance = 0.5
;pocketing_type = none
;path_direction = x
;
;PYCAM_TOOLPATH_SETTINGS: END
T1 M6
G0 Z30.0000
M3 (start spindle)
G04 P3 (wait for 3 seconds)
 X752.1675 Y5.5550
G1 Z26.8000
 X897.9575
 Y16.2958
 X752.1675
 Y27.0367
 X897.9575
 Y37.7775
 X752.1675
 Y48.5183
 X897.9575
 Y59.2592
 X752.1675
 Y70.0000
 X897.9575
 Y80.7408
 X752.1675
 Y91.4817
 X897.9575
 Y102.2225
 X752.1675
 Y112.9633
 X897.9575
 Y123.7042
 X752.1675
 Y134.4450
 X897.9575
 Z23.8222
 X755.1453
 Y123.7042
 X897.9575
 Y112.9633
 X755.1453
 Y102.2225
 X897.9575
 Y91.4817
 X755.1453
 Y80.7408
 X897.9575
 Y70.0000
 X755.1453
 Y59.2592
 X897.9575
 Y48.5183
 X755.1453
 Y37.7775
 X897.9575
 Y27.0367
 X755.1453
 Y16.2958
 X897.9575
 Y5.5550
 X755.1453
G0 Z30.0000
 X757.1675
G1 Z20.8444
 X897.9575
 Y16.2958
 X757.1675
 Y27.0367
 X897.9575
 Y37.7775
 X757.1675
 Y48.5183
 X897.9575
 Y59.2592
 X757.1675
 Y70.0000
 X897.9575
 Y80.7408
 X757.1675
 Y91.4817
 X897.9575
 Y102.2225
 X757.1675
 Y112.9633
 X897.9575
 Y123.7042
 X757.1675
 Y134.4450
 X897.9575
 Z17.8667
 X757.1675
 Y123.7042
 X897.9575
 Y112.9633
 X757.1675
 Y102.2225
 X897.9575
 Y91.4817
 X757.1675
 Y80.7408
 X897.9575
 Y70.0000
 X757.1675
 Y59.2592
 X897.9575
 Y48.5183
 X757.1675
 Y37.7775
 X897.9575
 Y27.0367
 X757.1675
 Y16.2958
 X897.9575
 Y5.5550
 X757.1675
G0 Z30.0000
M5 (stop spindle)
G04 P3 (wait for 3 seconds)
F800.00000
S1000.00000
;PYCAM_TOOLPATH_SETTINGS: START
;[Bounds]
;maxz = 26.7999992371
;maxx = 897.957512207
;maxy = 134.445
;minx = 5.555
;miny = 5.555
;minz = 0.0
;
;[Tool]
;torus_radius = 0.25
;speed = 1000.0
;shape = CylindricalCutter
;tool_radius = 5.555
;feedrate = 800.0
;
;[Process]
;engrave_offset = 0.0
;step_down = 1.5
;generator = ContourFollow
;postprocessor = SimpleCutter
;milling_style = conventional
;material_allowance = 0.0
;pocketing_type = none
;path_direction = x
;
;PYCAM_TOOLPATH_SETTINGS: END
G0 Z30.0000
M3 (start spindle)
G04 P3 (wait for 3 seconds)
 X751.6675 Y5.5550
G1 Z26.8000
 Y134.4450
G0 Z30.0000
 X735.5574
G1 Z26.8000
 Y5.5550
 X735.5551
 Y134.4450
G0 Z30.0000
 X753.1564 Y98.3111
G1 Z25.3111
 Y134.4450
G0 Z30.0000
 X735.5574
G1 Z25.3111
 Y5.5550
G0 Z30.0000
 Y29.7778
G1 Z25.3111
 Y5.5550
 X735.5551
 Y134.4450
G0 Z30.0000
 X735.5574
G1 Z23.8222
 Y5.5550
G0 Z30.0000
 X754.6453
G1 Z23.8222
 Y56.6223
 Y134.4450
G0 Z30.0000
 X735.5574 Y59.5556
G1 Z23.8222
 Y5.5550
 X735.5551
 Y134.4450
G0 Z30.0000
 Y80.4444
G1 Z23.8222
 Y134.4450
G0 Z30.0000
 X735.5574
G1 Z22.3333
 Y5.5550
G0 Z30.0000
 X756.1342
G1 Z22.3333
 Y14.9334
 Y134.4450
G0 Z30.0000
 X735.5574 Y89.3333
G1 Z22.3333
 Y5.5550
G0 Z30.0000
 X735.5551 Y50.6667
G1 Z22.3333
 Y134.4450
G0 Z30.0000
 Y5.5550
G1 Z22.3333
 Y134.4450
G0 Z30.0000
 X756.6675 Y5.5550
G1 Z20.8444
 Y23.0651
G0 Z30.0000
 X735.5574 Y119.1111
G1 Z20.8444
 Y5.5550
G0 Z30.0000
 X756.6675
G1 Z20.8444
 Y134.4450
G0 Z30.0000
 X735.5551 Y20.8889
G1 Z20.8444
 Y134.4450
 X735.5574
 Y5.5550
 X735.5551
 Y134.4450
G0 Z30.0000
 X756.6675 Y5.5550
G1 Z17.8667
 Y94.9425
G0 Z30.0000
 Y5.5550
G1 Z17.8667
 Y134.4450
G0 Z30.0000
 Y5.5550
G1 Z16.3778
 Y130.8812
G0 Z30.0000
 Y5.5550
G1 Z16.3778
 Y134.4450
G0 Z30.0000
M5 (stop spindle)
G04 P3 (wait for 3 seconds)
G0 Z30.0000
M2 (end program)
